X:148
T:Young Parker. JC.147
T:Constant Billy, aka. JC.147
T:Waterman, aka. JC.147
R:Jig
S:John Clare,Poet,Helpstone (1793-1864)
N:Similar to Morris tune Constant Billy.
N:Song text exists. See Deacon.
O:England
A:Northamptonshire
Z:vmp.P. Headford
M:6/8
L:1/8
Q:3/8=120
K:D
d/f/|\
a2f dfa|g2e cBA|f2″ crot”d BAG|ABc d2:|!
|:f|g2g gbg|efg afd|efg agf|efga3|!
a2f dfa|g2e cBA|f2d BAG|ABcd2:|

